X:1015
%%annotationfont Times-Bold 16
T:Miss Rowan Davies #2
C:Joe Buchanan's Scottish Tome - Page 608.0
I:608 0
Z:Carl Allison
R:Waltz
L:1/4
M:3/4
K:G
(B/A/) | "G"G2 D | "Bm"D>E F | "Em"G3- | G g f | "C"eG> G | "G"d>G B | "Am"A3- | "D"A (B/A/) |
"G"G2 D | "Bm"D>E F | "Em"G3- | G A B/G/ | "C"E>c- c/A/ | "D"F- F/G/ | "G"G3- | G2 :|
(G/F/) | "C"E>E E | e>G G | "G"d3- | d (B/A/) | "Em"G>A B | "Am"e>G A | "Bm"B3 | "G7"B c d |
"C"e>E G | "D"(F>G) A/F/ | "Em"G3- | G>(A B/G/) | "C"E>c- c/A/ | "D"F- F/G/ | "G"G- | G2 :|
W:Harmony
%%vskip 0
(d/c/) | B3 | A3 | B3 | B3 | c3 | B- (B/d/) | c3 | d2 c |
B3 | A3 | B3 | B2 d | c/e/- e2 | d2 c | B3- | B2 :|
B/A/ | G3 | c3 | (B>B) A/G/ | F2 G/F/ | E>F G | G E2 | D2 E | =F>G B/d/ |
c3 | d2 c | B3 | B2 d | c/e/- e2 | d2 c | B3- | B2 :|

